X:1
T:Heather on the Moor
M:4/4
L:1/4
K:A
 A,/2B,/2| C C C B,/2B,/2| B, A, A, A,| C3/2 B,/2 C- E|
M:2/4
 F A|
M:4/4
 F/2- E3/2 E2-| E2 z E| A A/2 A3/2 c| A C D E| F A E/2E/2 F| C3/2 B,/2A,/2 A,/2 G,/2 G,/2|\
 A,/2A,/2 A,/2A,/2 A, z| E C/2C/2 B,/2A,/2 z| C C/2B,/2 C E/2E/2|
M:2/4
 F A|
M:4/4
 F/2- E3/2 E2-| E2 z E| A A/2 A3/2 c| A C D E| F A E/2E/2 F| C3/2 B,/2A,/2 A,/2 G,/2 G,/2|\
 A,/2A,/2 A,/2A,/2 A, z| z2 z||
